packages/dnb-ui-lib/assets/icons/link_out_medium.svg

<svg width="24" height="24" viewBox="0 0 24 24" fill="none" xmlns="http://www.w3.org/2000/svg">
<g clip-path="url(#clip0)">
<path d="M16.5 0C16.0858 0 15.75 0.335786 15.75 0.75C15.75 1.16421 16.0858 1.5 16.5 1.5V0ZM22.5 0.75H23.25C23.25 0.335786 22.9142 0 22.5 0V0.75ZM21.75 6.75C21.75 7.16421 22.0858 7.5 22.5 7.5C22.9142 7.5 23.25 7.16421 23.25 6.75H21.75ZM23.25 12.75C23.25 12.3358 22.9142 12 22.5 12C22.0858 12 21.75 12.3358 21.75 12.75H23.25ZM22.5 23.5V24.25C22.9142 24.25 23.25 23.9142 23.25 23.5H22.5ZM1.5 23.5H0.75C0.75 23.9142 1.08579 24.25 1.5 24.25L1.5 23.5ZM1.5 0.75V0C1.08579 0 0.75 0.335786 0.75 0.75L1.5 0.75ZM10.125 1.5C10.5392 1.5 10.875 1.16421 10.875 0.75C10.875 0.335786 10.5392 0 10.125 0V1.5ZM14.4697 7.71967C14.1768 8.01256 14.1768 8.48744 14.4697 8.78033C14.7626 9.07322 15.2374 9.07322 15.5303 8.78033L14.4697 7.71967ZM21.75 0.75V6.75H23.25V0.75H21.75ZM21.75 12.75V23.5H23.25V12.75H21.75ZM22.5 22.75H1.5V24.25H22.5V22.75ZM2.25 23.5V0.75H0.75V23.5H2.25ZM1.5 1.5H10.125V0H1.5V1.5ZM16.5 1.5H22.5V0H16.5V1.5ZM15.5303 8.78033L23.0303 1.28033L21.9697 0.21967L14.4697 7.71967L15.5303 8.78033Z" fill="black"/>
</g>
<defs>
<clipPath id="clip0">
<path d="M0 0H24V24H0V0Z" fill="white"/>
</clipPath>
</defs>
</svg>

<svg width="24" height="24" viewBox="0 0 24 24" fill="none" xmlns="http://www.w3.org/2000/svg"><g clip-path="url(#clip0)"><path d="M16.5 0a.75.75 0 000 1.5V0zm6 .75h.75A.75.75 0 0022.5 0v.75zm-.75 6a.75.75 0 001.5 0h-1.5zm1.5 6a.75.75 0 00-1.5 0h1.5zM22.5 23.5v.75a.75.75 0 00.75-.75h-.75zm-21 0H.75c0 .414.336.75.75.75v-.75zM1.5.75V0a.75.75 0 00-.75.75h.75zm8.625.75a.75.75 0 000-1.5v1.5zm4.345 6.22a.75.75 0 001.06 1.06l-1.06-1.06zM21.75.75v6h1.5v-6h-1.5zm0 12V23.5h1.5V12.75h-1.5zm.75 10h-21v1.5h21v-1.5zm-20.25.75V.75H.75V23.5h1.5zm-.75-22h8.625V0H1.5v1.5zm15 0h6V0h-6v1.5zm-.97 7.28l7.5-7.5L21.97.22l-7.5 7.5 1.06 1.06z" fill="#000"/></g><defs/></svg>
